X: 16
I: linebreak $
T: Fiamma d'Amore
P: AA B x 4
K: D minor
M: 3/4
L: 1/8
P: A
F2 | "Bb"F3EF2 | "C"G3FG2 | "F"A4A2 | A4G2 | "Bb"F3ED2 | "A"E3DE2 | 
"D"^F4F2 | D4 :| 
P: B
F2 | "Bb"F3EF2 | "C"G3FG2 | "F"A4A2 | A4c2 | 
"Gm"B4A2 | "C"G3FG2 | "F"A4A2 | A4F2 | "Bb"F3EF2 | "C"G3FG2 | 
"F"A4A2 | A4G2 | "Bb"F3ED2 | "A"E3DE2 | "D"^F4F2 | ^F6 | 
M: 2/2
"Bb"F4 F4 | "C"G4 "F"A4- | A4 "Bb"F4 | F4 "C"G4 | 
M: 3/4
"F"A4G2 | "Bb"F3ED2 | "A"E3DE2 | "D"^F4F2 | ^F6- | ^F4 |] 

